src/actions/16/preferences-activities.svg

<svg xmlns="http://www.w3.org/2000/svg" viewBox="0 0 16 16">
  <defs id="defs3051">
    <style type="text/css" id="current-color-scheme">
      .ColorScheme-Text {
        color:#2e3440;
      }
      </style>
  </defs>
 <path 
     style="fill:currentColor;fill-opacity:1;stroke:none" 
     d="M 3.5 6 A 1.5 1.5 0 0 0 2 7.5 A 1.5 1.5 0 0 0 3.5 9 A 1.5 1.5 0 0 0 5 7.5 A 1.5 1.5 0 0 0 3.5 6 z M 7.5039062 6 A 1.5 1.5 0 0 0 6.0039062 7.5 A 1.5 1.5 0 0 0 7.5039062 9 A 1.5 1.5 0 0 0 9.0039062 7.5 A 1.5 1.5 0 0 0 7.5039062 6 z M 11.503906 6 A 1.5 1.5 0 0 0 10.003906 7.5 A 1.5 1.5 0 0 0 11.503906 9 A 1.5 1.5 0 0 0 13.003906 7.5 A 1.5 1.5 0 0 0 11.503906 6 z M 3.5 7 A 0.5 0.5 0 0 1 4 7.5 A 0.5 0.5 0 0 1 3.5 8 A 0.5 0.5 0 0 1 3 7.5 A 0.5 0.5 0 0 1 3.5 7 z M 7.5039062 7 A 0.5 0.5 0 0 1 8.0039062 7.5 A 0.5 0.5 0 0 1 7.5039062 8 A 0.5 0.5 0 0 1 7.0039062 7.5 A 0.5 0.5 0 0 1 7.5039062 7 z M 11.503906 7 A 0.5 0.5 0 0 1 12.003906 7.5 A 0.5 0.5 0 0 1 11.503906 8 A 0.5 0.5 0 0 1 11.003906 7.5 A 0.5 0.5 0 0 1 11.503906 7 z "
     class="ColorScheme-Text"/>
</svg>

<svg viewBox="0 0 16 16" xmlns="http://www.w3.org/2000/svg">
 <defs>
  <style type="text/css">.ColorScheme-Text {
        color:#2e3440;
      }</style>
 </defs>
 <path class="ColorScheme-Text" d="m3.5 6a1.5 1.5 0 0 0-1.5 1.5 1.5 1.5 0 0 0 1.5 1.5 1.5 1.5 0 0 0 1.5-1.5 1.5 1.5 0 0 0-1.5-1.5zm4.0039 0a1.5 1.5 0 0 0-1.5 1.5 1.5 1.5 0 0 0 1.5 1.5 1.5 1.5 0 0 0 1.5-1.5 1.5 1.5 0 0 0-1.5-1.5zm4 0a1.5 1.5 0 0 0-1.5 1.5 1.5 1.5 0 0 0 1.5 1.5 1.5 1.5 0 0 0 1.5-1.5 1.5 1.5 0 0 0-1.5-1.5zm-8.0039 1a0.5 0.5 0 0 1 0.5 0.5 0.5 0.5 0 0 1-0.5 0.5 0.5 0.5 0 0 1-0.5-0.5 0.5 0.5 0 0 1 0.5-0.5zm4.0039 0a0.5 0.5 0 0 1 0.5 0.5 0.5 0.5 0 0 1-0.5 0.5 0.5 0.5 0 0 1-0.5-0.5 0.5 0.5 0 0 1 0.5-0.5zm4 0a0.5 0.5 0 0 1 0.5 0.5 0.5 0.5 0 0 1-0.5 0.5 0.5 0.5 0 0 1-0.5-0.5 0.5 0.5 0 0 1 0.5-0.5z" fill="currentColor"/>
</svg>
